X: 43339
T: Worn Torn Petticoat, The
R: slide
M: 12/8
K: Adorian
e2d|c2A BAG A2G E2D|E2A A2B c^cd e2d|
c2A BAG A2G E2D|E2A A2G A3:|A2A|
Bcd e2f gfe c^cd|e2a a2g a2g e2d|
c^cd e2f gfe =c^cd|e2a a2g a3 a2A|
c^cd e2f gfe =c^cd|e2a a2g a2g e2d|
c2A BAG A2G E2D|E2A A2G A3 A3|

